static/img/kroki/99fa38d21a8908d0b0681db443ae90f4.svg

<?xml version="1.0" encoding="us-ascii" standalone="no"?><svg xmlns="http://www.w3.org/2000/svg" xmlns:xlink="http://www.w3.org/1999/xlink" contentStyleType="text/css" height="252px" preserveAspectRatio="none" style="width:262px;height:252px;" version="1.1" viewBox="0 0 262 252" width="262px" zoomAndPan="magnify"><defs/><g><!--class slack_conversation--><g id="elem_slack_conversation"><rect codeLine="22" fill="#3D176E" height="39.7891" id="slack_conversation" rx="2.5" ry="2.5" style="stroke:#000D19;stroke-width:0.5;" width="199" x="7" y="106.79"/><ellipse cx="22" cy="126.6845" fill="#ADD1B2" rx="11" ry="11" style="stroke:#181818;stroke-width:1.0;"/><path d="M24.9688,132.3252 Q24.3906,132.622 23.75,132.7627 Q23.1094,132.9189 22.4063,132.9189 Q19.9063,132.9189 18.5781,131.2783 Q17.2656,129.622 17.2656,126.497 Q17.2656,123.372 18.5781,121.7158 Q19.9063,120.0595 22.4063,120.0595 Q23.1094,120.0595 23.75,120.2158 Q24.4063,120.372 24.9688,120.6689 L24.9688,123.3877 Q24.3438,122.8095 23.75,122.5439 Q23.1563,122.2627 22.5313,122.2627 Q21.1875,122.2627 20.5,123.3408 Q19.8125,124.4033 19.8125,126.497 Q19.8125,128.5908 20.5,129.6689 Q21.1875,130.7314 22.5313,130.7314 Q23.1563,130.7314 23.75,130.4658 Q24.3438,130.1845 24.9688,129.6064 L24.9688,132.3252 Z " fill="#000000"/><text fill="#D9B8FF" font-family="Helvetica" font-size="17" lengthAdjust="spacing" textLength="157" x="41" y="132.5698">slack_conversation</text></g><!--class slack_region--><g id="elem_slack_region"><rect codeLine="24" fill="#3D176E" height="39.7891" id="slack_region" rx="2.5" ry="2.5" style="stroke:#000D19;stroke-width:0.5;" width="145" x="110" y="7"/><ellipse cx="125" cy="26.8945" fill="#ADD1B2" rx="11" ry="11" style="stroke:#181818;stroke-width:1.0;"/><path d="M127.9688,32.5352 Q127.3906,32.832 126.75,32.9727 Q126.1094,33.1289 125.4063,33.1289 Q122.9063,33.1289 121.5781,31.4883 Q120.2656,29.832 120.2656,26.707 Q120.2656,23.582 121.5781,21.9258 Q122.9063,20.2695 125.4063,20.2695 Q126.1094,20.2695 126.75,20.4258 Q127.4063,20.582 127.9688,20.8789 L127.9688,23.5977 Q127.3438,23.0195 126.75,22.7539 Q126.1563,22.4727 125.5313,22.4727 Q124.1875,22.4727 123.5,23.5508 Q122.8125,24.6133 122.8125,26.707 Q122.8125,28.8008 123.5,29.8789 Q124.1875,30.9414 125.5313,30.9414 Q126.1563,30.9414 126.75,30.6758 Q127.3438,30.3945 127.9688,29.8164 L127.9688,32.5352 Z " fill="#000000"/><text fill="#D9B8FF" font-family="Helvetica" font-size="17" lengthAdjust="spacing" textLength="103" x="144" y="32.7798">slack_region</text></g><!--class slack_user--><g id="elem_slack_user"><rect codeLine="26" fill="#3D176E" height="39.7891" id="slack_user" rx="2.5" ry="2.5" style="stroke:#000D19;stroke-width:0.5;" width="128" x="118.5" y="206.58"/><ellipse cx="133.5" cy="226.4745" fill="#ADD1B2" rx="11" ry="11" style="stroke:#181818;stroke-width:1.0;"/><path d="M136.4688,232.1152 Q135.8906,232.412 135.25,232.5527 Q134.6094,232.7089 133.9063,232.7089 Q131.4063,232.7089 130.0781,231.0683 Q128.7656,229.412 128.7656,226.287 Q128.7656,223.162 130.0781,221.5058 Q131.4063,219.8495 133.9063,219.8495 Q134.6094,219.8495 135.25,220.0058 Q135.9063,220.162 136.4688,220.4589 L136.4688,223.1777 Q135.8438,222.5995 135.25,222.3339 Q134.6563,222.0527 134.0313,222.0527 Q132.6875,222.0527 132,223.1308 Q131.3125,224.1933 131.3125,226.287 Q131.3125,228.3808 132,229.4589 Q132.6875,230.5214 134.0313,230.5214 Q134.6563,230.5214 135.25,230.2558 Q135.8438,229.9745 136.4688,229.3964 L136.4688,232.1152 Z " fill="#000000"/><text fill="#D9B8FF" font-family="Helvetica" font-size="17" lengthAdjust="spacing" textLength="86" x="152.5" y="232.3598">slack_user</text></g><!--link slack_conversation to slack_user--><g id="link_slack_conversation_slack_user"><path codeLine="28" d="M121.52,147.01 C134.84,164.15 150.5183,184.3224 163.8383,201.4624 " fill="none" id="slack_conversation-to-slack_user" style="stroke:#1A83AF;stroke-width:2.0;"/><polygon fill="#1A83AF" points="167.52,206.2,165.1558,196.6391,164.4519,202.252,158.839,201.5481,167.52,206.2" style="stroke:#1A83AF;stroke-width:2.0;"/></g><!--link slack_region to slack_conversation--><g id="link_slack_region_slack_conversation"><path codeLine="29" d="M167.48,47.22 C154.16,64.36 138.4817,84.5324 125.1617,101.6724 " fill="none" id="slack_region-to-slack_conversation" style="stroke:#1A83AF;stroke-width:2.0;"/><polygon fill="#1A83AF" points="121.48,106.41,130.161,101.7581,124.5481,102.462,123.8442,96.8491,121.48,106.41" style="stroke:#1A83AF;stroke-width:2.0;"/></g><!--link slack_region to slack_user--><g id="link_slack_region_slack_user"><path codeLine="30" d="M195.94,47.27 C205.74,62.63 218.19,85.05 223.5,106.79 C227.7,123.97 227.7,129.4 223.5,146.58 C218.19,168.32 208.9687,185.6928 199.1687,201.0428 " fill="none" id="slack_region-to-slack_user" style="stroke:#1A83AF;stroke-width:2.0;"/><polygon fill="#1A83AF" points="195.94,206.1,204.1545,200.6667,198.6306,201.8857,197.4116,196.3617,195.94,206.1" style="stroke:#1A83AF;stroke-width:2.0;"/></g><!--SRC=[XP9FQuD04CNl-HGBdWDQQTLBmGYXlOJIz5PAMTrPNTHTcLqJqjBlNctQilv9lBxtuysROGh1W43Tc1EfeKu1zKgNGZOKQKrYH7LCLAMGE9nJxWTZSwkaMGHsj0Ro0DK1ZCZec7WfH5PAq9hSMDQ6PcMEgfNi76-GIjrP88r59HNLEZO6HTeQiCgmA0qv7vFZKCTdNd074qmX0_n5NDTbNZH65aTTtVkVs8iF89vzj9qoCAav6V53NMtP4rR9oQ9__iMEJvGn8NDoQsdFvque0GVwlg1C7NkQqqhROxG116LE3IIJhI0A6GzcuSTBSDPVZkYgizyp9G_Tlr8Zb2IVgw-1YP3FoQtkglVYJCJwrV7Yq8-tR-jx2ryD0cSWEsGHxXE_0G00]--></g></svg>

<svg xmlns="http://www.w3.org/2000/svg" width="262" height="252" viewBox="0 0 262 252"><rect width="199" height="39.789" x="7" y="106.79" fill="#3D176E" rx="2.5" ry="2.5" style="stroke:#000d19;stroke-width:.5"/><circle cx="22" cy="126.684" r="11" fill="#ADD1B2" style="stroke:#181818;stroke-width:1"/><path d="M24.969 132.325q-.578.297-1.219.438-.64.156-1.344.156-2.5 0-3.828-1.64-1.312-1.657-1.312-4.782t1.312-4.781q1.328-1.656 3.828-1.656.703 0 1.344.156.656.156 1.219.453v2.719q-.625-.579-1.219-.844-.594-.281-1.219-.281-1.343 0-2.031 1.078-.687 1.062-.687 3.156t.687 3.172q.688 1.062 2.031 1.062.625 0 1.219-.265.594-.281 1.219-.86z"/><text x="41" y="132.57" fill="#D9B8FF" font-family="Helvetica" font-size="17" textLength="157">slack_conversation</text><rect width="145" height="39.789" x="110" y="7" fill="#3D176E" rx="2.5" ry="2.5" style="stroke:#000d19;stroke-width:.5"/><circle cx="125" cy="26.895" r="11" fill="#ADD1B2" style="stroke:#181818;stroke-width:1"/><path d="M127.969 32.535q-.578.297-1.219.438-.64.156-1.344.156-2.5 0-3.828-1.64-1.312-1.657-1.312-4.782t1.312-4.781q1.328-1.656 3.828-1.656.703 0 1.344.156.656.156 1.219.453v2.719q-.625-.578-1.219-.844-.594-.281-1.219-.281-1.344 0-2.031 1.078-.687 1.062-.687 3.156t.687 3.172q.688 1.062 2.031 1.062.625 0 1.219-.265.594-.281 1.219-.86z"/><text x="144" y="32.78" fill="#D9B8FF" font-family="Helvetica" font-size="17" textLength="103">slack_region</text><rect width="128" height="39.789" x="118.5" y="206.58" fill="#3D176E" rx="2.5" ry="2.5" style="stroke:#000d19;stroke-width:.5"/><circle cx="133.5" cy="226.475" r="11" fill="#ADD1B2" style="stroke:#181818;stroke-width:1"/><path d="M136.469 232.115q-.578.297-1.219.438-.64.156-1.344.156-2.5 0-3.828-1.64-1.312-1.657-1.312-4.782t1.312-4.781q1.328-1.656 3.828-1.656.703 0 1.344.156.656.156 1.219.453v2.719q-.625-.578-1.219-.844-.594-.281-1.219-.281-1.344 0-2.031 1.078-.687 1.062-.687 3.156t.687 3.172q.688 1.062 2.031 1.062.625 0 1.219-.265.594-.281 1.219-.86z"/><text x="152.5" y="232.36" fill="#D9B8FF" font-family="Helvetica" font-size="17" textLength="86">slack_user</text><path fill="none" d="m121.52 147.01 42.318 54.452" style="stroke:#1a83af;stroke-width:2"/><path fill="#1A83AF" d="m167.52 206.2-2.364-9.56-.704 5.612-5.613-.704z" style="stroke:#1a83af;stroke-width:2"/><path fill="none" d="m167.48 47.22-42.318 54.452" style="stroke:#1a83af;stroke-width:2"/><path fill="#1A83AF" d="m121.48 106.41 8.681-4.652-5.613.704-.704-5.613z" style="stroke:#1a83af;stroke-width:2"/><path fill="none" d="M195.94 47.27c9.8 15.36 22.25 37.78 27.56 59.52 4.2 17.18 4.2 22.61 0 39.79-5.31 21.74-14.531 39.113-24.331 54.463" style="stroke:#1a83af;stroke-width:2"/><path fill="#1A83AF" d="m195.94 206.1 8.215-5.433-5.524 1.219-1.22-5.524z" style="stroke:#1a83af;stroke-width:2"/></svg>
